Numix-Circle/48x48/apps/braindump.svg

<?xml version="1.0" encoding="UTF-8" standalone="no"?>
<svg
   xmlns:dc="http://purl.org/dc/elements/1.1/"
   xmlns:cc="http://creativecommons.org/ns#"
   xmlns:rdf="http://www.w3.org/1999/02/22-rdf-syntax-ns#"
   xmlns:svg="http://www.w3.org/2000/svg"
   xmlns="http://www.w3.org/2000/svg"
   xmlns:xlink="http://www.w3.org/1999/xlink"
   xmlns:sodipodi="http://sodipodi.sourceforge.net/DTD/sodipodi-0.dtd"
   xmlns:inkscape="http://www.inkscape.org/namespaces/inkscape"
   width="48"
   viewBox="0 0 13.546667 13.546667"
   height="48"
   id="svg2"
   version="1.1"
   inkscape:version="0.91 r13725"
   sodipodi:docname="braindump.svg"
   inkscape:export-filename="/home/ismael/Imágenes/calligra/braindump.png"
   inkscape:export-xdpi="245"
   inkscape:export-ydpi="245">
  <metadata
     id="metadata331">
    <rdf:RDF>
      <cc:Work
         rdf:about="">
        <dc:format>image/svg+xml</dc:format>
        <dc:type
           rdf:resource="http://purl.org/dc/dcmitype/StillImage" />
        <dc:title />
      </cc:Work>
    </rdf:RDF>
  </metadata>
  <sodipodi:namedview
     pagecolor="#ffffff"
     bordercolor="#666666"
     borderopacity="1"
     objecttolerance="10"
     gridtolerance="10"
     guidetolerance="10"
     inkscape:pageopacity="0"
     inkscape:pageshadow="2"
     inkscape:window-width="1366"
     inkscape:window-height="713"
     id="namedview329"
     showgrid="true"
     inkscape:zoom="12.085106"
     inkscape:cx="19.520964"
     inkscape:cy="23.499999"
     inkscape:window-x="0"
     inkscape:window-y="28"
     inkscape:window-maximized="1"
     inkscape:current-layer="layer2"
     showguides="true"
     inkscape:guide-bbox="true"
     inkscape:object-paths="true"
     inkscape:snap-intersection-paths="true"
     inkscape:snap-smooth-nodes="true"
     inkscape:object-nodes="true">
    <inkscape:grid
       type="xygrid"
       id="grid3308" />
  </sodipodi:namedview>
  <defs
     id="defs4">
    <linearGradient
       inkscape:collect="always"
       id="linearGradient4541">
      <stop
         style="stop-color:#f0e8c8;stop-opacity:1"
         offset="0"
         id="stop4543" />
      <stop
         style="stop-color:#f4eed7;stop-opacity:1"
         offset="1"
         id="stop4545" />
    </linearGradient>
    <linearGradient
       inkscape:collect="always"
       xlink:href="#linearGradient4541"
       id="linearGradient4547"
       x1="-13.264445"
       y1="6.7733335"
       x2="-0.28222227"
       y2="6.7733335"
       gradientUnits="userSpaceOnUse" />
  </defs>
  <g
     inkscape:groupmode="layer"
     id="layer1"
     inkscape:label="Shadow"
     sodipodi:insensitive="true">
    <path
       style="opacity:0.05;fill:#000000;fill-opacity:1;stroke:none"
       d="M 25,2 C 12.297451,2 2,12.297451 2,25 2,31.367153 4.6007106,37.116628 8.78125,41.28125 12.865755,44.99361 18.29568,47.25 24.25,47.25 c 12.702549,0 23,-10.297451 23,-23 0,-5.95432 -2.25639,-11.384245 -5.96875,-15.46875 C 37.116628,4.6007105 31.367153,2 25,2 z M 41.28125,8.78125 C 45.135604,12.894061 47.5,18.418655 47.5,24.5 c 0,12.702549 -10.297451,23 -23,23 C 18.418655,47.5 12.894061,45.135604 8.78125,41.28125 12.940939,45.4251 18.664604,48 25,48 37.702549,48 48,37.702549 48,25 48,18.664604 45.4251,12.940939 41.28125,8.78125 z"
       transform="scale(0.28222223,0.28222223)"
       id="path3978"
       inkscape:connector-curvature="0" />
    <path
       style="opacity:0.1;fill:#000000;fill-opacity:1;stroke:none"
       d="M 41.28125,8.78125 C 44.99361,12.865755 47.25,18.29568 47.25,24.25 c 0,12.702549 -10.297451,23 -23,23 -5.95432,0 -11.384245,-2.25639 -15.46875,-5.96875 C 12.894061,45.135604 18.418655,47.5 24.5,47.5 c 12.702549,0 23,-10.297451 23,-23 0,-6.081345 -2.364396,-11.605939 -6.21875,-15.71875 z"
       transform="scale(0.28222223,0.28222223)"
       id="path3976"
       inkscape:connector-curvature="0" />
    <path
       transform="matrix(4.3274074,0,0,3.2455556,117.19278,-35.348334)"
       d="m -24,13 a 1.5,2 0 1 1 -3,0 1.5,2 0 1 1 3,0 z"
       sodipodi:ry="2"
       sodipodi:rx="1.5"
       sodipodi:cy="13"
       sodipodi:cx="-25.5"
       id="path3952"
       style="opacity:0.2;fill:#000000;fill-opacity:1;stroke:none"
       sodipodi:type="arc" />
  </g>
  <g
     inkscape:groupmode="layer"
     id="layer2"
     inkscape:label="Base">
    <circle
       style="fill:url(#linearGradient4547);fill-opacity:1;stroke:none"
       id="path3942"
       transform="matrix(0,-1,1,0,0,0)"
       cx="-6.7733335"
       cy="6.7733335"
       r="6.4911113"
       inkscape:export-filename="/home/ismael/Imágenes/calligra/path3942.png"
       inkscape:export-xdpi="245"
       inkscape:export-ydpi="245" />
    <path
       style="opacity:0.1;fill:#000000;fill-opacity:1;stroke:none"
       d="M 40.03125 7.53125 C 43.74361 11.615755 46 17.04568 46 23 C 46 35.702549 35.702549 46 23 46 C 17.04568 46 11.615755 43.74361 7.53125 40.03125 C 11.709416 44.322508 17.537578 47 24 47 C 36.702549 47 47 36.702549 47 24 C 47 17.537578 44.322508 11.709416 40.03125 7.53125 z "
       transform="scale(0.28222223,0.28222223)"
       id="path4027" />
    <path
       style="color:#000000;font-style:normal;font-variant:normal;font-weight:normal;font-stretch:normal;font-size:medium;line-height:normal;font-family:sans-serif;text-indent:0;text-align:start;text-decoration:none;text-decoration-line:none;text-decoration-style:solid;text-decoration-color:#000000;letter-spacing:normal;word-spacing:normal;text-transform:none;direction:ltr;block-progression:tb;writing-mode:lr-tb;baseline-shift:baseline;text-anchor:start;white-space:normal;clip-rule:nonzero;display:inline;overflow:visible;visibility:visible;opacity:0.6;isolation:auto;mix-blend-mode:normal;color-interpolation:sRGB;color-interpolation-filters:linearRGB;solid-color:#000000;solid-opacity:1;fill:#1a1a1a;fill-opacity:1;fill-rule:nonzero;stroke:none;stroke-width:0.56444442;stroke-linecap:butt;stroke-linejoin:miter;stroke-miterlimit:4;stroke-dasharray:none;stroke-dashoffset:0;stroke-opacity:1;color-rendering:auto;image-rendering:auto;shape-rendering:auto;text-rendering:auto;enable-background:accumulate"
       d="m 7.1768186,2.505818 c -2.334836,10e-8 -4.2333335,1.8984978 -4.2333334,4.2333332 0,2.3348357 1.8984974,4.2333338 4.2333334,4.2333338 1.3658028,0 2.5785357,-0.652554 3.3530424,-1.6591584 l -0.6906728,0 C 9.1661124,10.009414 8.2237637,10.443318 7.1768186,10.443318 c -2.0488574,0 -3.7041666,-1.6553094 -3.7041666,-3.7041668 0,-2.0488571 1.6553092,-3.7041666 3.7041666,-3.7041666 1.0802922,0 2.0481393,0.4629144 2.7246569,1.1983421 l 0.6796485,0 C 9.8096626,3.1879784 8.573212,2.505818 7.1768186,2.505818 Z"
       id="path4522"
       inkscape:connector-curvature="0" />
    <g
       transform="translate(0.2822222,0.00240444)"
       id="g4584"
       style="opacity:0.1;fill:#000000">
      <g
         id="g4586"
         transform="matrix(0.93969262,-0.34202014,0.34202014,0.93969262,-2.1357765,2.5910129)"
         style="fill:#000000">
        <rect
           y="4.5155554"
           x="4.2333336"
           height="5.0799999"
           width="4.5155554"
           id="rect4588"
           style="opacity:1;fill:#000000;fill-opacity:1;fill-rule:nonzero;stroke:none;stroke-width:0.30000001;stroke-miterlimit:4;stroke-dasharray:none;stroke-opacity:1" />
      </g>
      <g
         id="g4600"
         transform="matrix(0.93969262,0.34202014,-0.34202014,0.93969262,-5.8670107,-1.7611599)"
         style="fill:#000000">
        <path
           inkscape:connector-curvature="0"
           id="path4602"
           d="m 15.522222,5.08 0,1.1288888 0.564445,0.5644445 0.564444,0 0.564444,-0.5644445 0,-1.1288888 z"
           style="fill:#000000;fill-rule:evenodd;stroke:none;stroke-width:0.28222221px;stroke-linecap:butt;stroke-linejoin:miter;stroke-opacity:1" />
        <path
           sodipodi:nodetypes="ssccccss"
           inkscape:connector-curvature="0"
           id="path4604"
           transform="scale(0.28222222,0.28222222)"
           d="m 58,2 c -4.142136,-2e-7 -7.640129,3.3602353 -7.5,7.5 0.09109,2.691032 3.5,6.5 3.5,6.5 l 1,2 6,0 1.000001,-2 c 0,0 3.498462,-3.813134 3.499999,-6.5 C 65.50237,5.357865 62.142136,1.9999998 58,2 Z"
           style="opacity:1;fill:#000000;fill-opacity:1;fill-rule:nonzero;stroke:none;stroke-width:0.30000001;stroke-miterlimit:4;stroke-dasharray:none;stroke-opacity:1" />
      </g>
    </g>
    <g
       id="g4572"
       transform="translate(6.0587827e-8,-0.27981778)">
      <g
         transform="matrix(0.93969262,-0.34202014,0.34202014,0.93969262,-2.1357765,2.5910129)"
         id="g4550">
        <rect
           style="opacity:1;fill:#f9f9f9;fill-opacity:1;fill-rule:nonzero;stroke:none;stroke-width:0.30000001;stroke-miterlimit:4;stroke-dasharray:none;stroke-opacity:1"
           id="rect4524"
           width="4.5155554"
           height="5.0799999"
           x="4.2333336"
           y="4.5155554" />
        <rect
           style="opacity:1;fill:#b3b3b3;fill-opacity:1;fill-rule:nonzero;stroke:none;stroke-width:0.30000001;stroke-miterlimit:4;stroke-dasharray:none;stroke-opacity:1"
           id="rect4526"
           width="3.386667"
           height="0.28222233"
           x="4.7977777"
           y="5.0799999" />
        <rect
           y="5.9266667"
           x="4.7977777"
           height="0.28222233"
           width="1.6933336"
           id="rect4528"
           style="opacity:1;fill:#b3b3b3;fill-opacity:1;fill-rule:nonzero;stroke:none;stroke-width:0.30000001;stroke-miterlimit:4;stroke-dasharray:none;stroke-opacity:1" />
        <rect
           y="6.7733335"
           x="4.7977777"
           height="0.28222233"
           width="2.8222225"
           id="rect4530"
           style="opacity:1;fill:#b3b3b3;fill-opacity:1;fill-rule:nonzero;stroke:none;stroke-width:0.30000001;stroke-miterlimit:4;stroke-dasharray:none;stroke-opacity:1" />
        <rect
           style="opacity:1;fill:#b3b3b3;fill-opacity:1;fill-rule:nonzero;stroke:none;stroke-width:0.30000001;stroke-miterlimit:4;stroke-dasharray:none;stroke-opacity:1"
           id="rect4532"
           width="2.2577784"
           height="0.28222233"
           x="4.7977777"
           y="7.6199999" />
        <rect
           style="opacity:1;fill:#b3b3b3;fill-opacity:1;fill-rule:nonzero;stroke:none;stroke-width:0.30000001;stroke-miterlimit:4;stroke-dasharray:none;stroke-opacity:1"
           id="rect4534"
           width="1.4111109"
           height="0.28222233"
           x="4.7977777"
           y="8.4666672" />
      </g>
      <g
         transform="matrix(0.93969262,0.34202014,-0.34202014,0.93969262,-5.8670107,-1.7611599)"
         id="g4568">
        <path
           style="fill:#808080;fill-rule:evenodd;stroke:none;stroke-width:0.28222221px;stroke-linecap:butt;stroke-linejoin:miter;stroke-opacity:1"
           d="m 15.522222,5.08 0,1.1288888 0.564445,0.5644445 0.564444,0 0.564444,-0.5644445 0,-1.1288888 z"
           id="path4558"
           inkscape:connector-curvature="0" />
        <path
           style="opacity:1;fill:#ffe680;fill-opacity:1;fill-rule:nonzero;stroke:none;stroke-width:0.30000001;stroke-miterlimit:4;stroke-dasharray:none;stroke-opacity:1"
           d="m 58,2 c -4.142136,-2e-7 -7.640129,3.3602353 -7.5,7.5 0.09109,2.691032 3.5,6.5 3.5,6.5 l 1,2 6,0 1.000001,-2 c 0,0 3.498462,-3.813134 3.499999,-6.5 C 65.50237,5.357865 62.142136,1.9999998 58,2 Z"
           transform="scale(0.28222222,0.28222222)"
           id="path4560"
           inkscape:connector-curvature="0"
           sodipodi:nodetypes="ssccccss" />
      </g>
    </g>
  </g>
  <g
     inkscape:groupmode="layer"
     id="layer3"
     inkscape:label="Symbol" />
</svg>

<svg xmlns="http://www.w3.org/2000/svg" width="48" viewBox="0 0 13.546667 13.546667" height="48">
 <defs>
  <linearGradient id="linearGradient4547" x1="-13.264" x2="-0.282" gradientUnits="userSpaceOnUse">
   <stop style="stop-color:#f0e8c8;stop-opacity:1"/>
   <stop offset="1" style="stop-color:#f4eed7;stop-opacity:1"/>
  </linearGradient>
 </defs>
 <g>
  <path d="m 25 2 c -12.703 0 -23 10.297 -23 23 0 6.367 2.601 12.12 6.781 16.281 4.085 3.712 9.514 5.969 15.469 5.969 c 12.703 0 23 -10.297 23 -23 0 -5.954 -2.256 -11.384 -5.969 -15.469 c -4.165 -4.181 -9.914 -6.781 -16.281 -6.781 z m 16.281 6.781 c 3.854 4.113 6.219 9.637 6.219 15.719 c 0 12.703 -10.297 23 -23 23 c -6.081 0 -11.606 -2.364 -15.719 -6.219 4.16 4.144 9.883 6.719 16.219 6.719 12.703 0 23 -10.297 23 -23 0 -6.335 -2.575 -12.06 -6.719 -16.219 z" transform="scale(0.28222223,0.28222223)" style="fill:#000;opacity:0.05;fill-opacity:1;stroke:none"/>
  <path d="m 41.28 8.781 c 3.712 4.085 5.969 9.514 5.969 15.469 c 0 12.703 -10.297 23 -23 23 -5.954 0 -11.384 -2.256 -15.469 -5.969 c 4.113 3.854 9.637 6.219 15.719 6.219 c 12.703 0 23 -10.297 23 -23 0 -6.081 -2.364 -11.606 -6.219 -15.719 z" transform="scale(0.28222223,0.28222223)" style="fill:#000;opacity:0.1;fill-opacity:1;stroke:none"/>
  <path transform="matrix(4.3274074,0,0,3.2455556,117.19278,-35.348334)" d="m -24 13 a 1.5 2 0 1 1 -3 0 1.5 2 0 1 1 3 0 z" style="fill:#000;opacity:0.2;fill-opacity:1;stroke:none"/>
 </g>
 <g>
  <circle transform="matrix(0,-1,1,0,0,0)" cx="-6.773" cy="6.773" r="6.491" style="fill:url(#linearGradient4547);fill-opacity:1;stroke:none"/>
  <path d="m 40.03 7.531 c 3.712 4.085 5.969 9.514 5.969 15.469 c 0 12.703 -10.297 23 -23 23 c -5.954 0 -11.384 -2.256 -15.469 -5.969 c 4.178 4.291 10.01 6.969 16.469 6.969 c 12.703 0 23 -10.297 23 -23 c 0 -6.462 -2.677 -12.291 -6.969 -16.469 z" transform="scale(0.28222223,0.28222223)" style="fill:#000;opacity:0.1;fill-opacity:1;stroke:none"/>
  <path d="m 7.177 2.506 c -2.335 0 -4.233 1.898 -4.233 4.233 0 2.335 1.898 4.233 4.233 4.233 1.366 0 2.579 -0.653 3.353 -1.659 l -0.691 0 c -0.673 0.696 -1.615 1.13 -2.662 1.13 c -2.049 0 -3.704 -1.655 -3.704 -3.704 0 -2.049 1.655 -3.704 3.704 -3.704 1.08 0 2.048 0.463 2.725 1.198 l 0.68 0 c -0.771 -1.045 -2.01 -1.728 -3.404 -1.728" mix-blend-mode="normal" isolation="auto" white-space="normal" solid-opacity="1" solid-color="#000000" style="visibility:visible;shape-rendering:auto;color-interpolation-filters:linearRGB;fill:#1a1a1a;opacity:0.6;image-rendering:auto;fill-opacity:1;stroke:none;display:inline;color:#000;fill-rule:nonzero;color-rendering:auto;color-interpolation:sRGB"/>
  <g transform="translate(0.2822222,0.00240444)" style="fill:#000;opacity:0.1">
   <g transform="matrix(0.93969262,-0.34202014,0.34202014,0.93969262,-2.1357765,2.5910129)">
    <path d="m 28.04 13.621 l -15.04 5.473 l 6.156 16.914 l 5.555 -2.02 l 0.854 1.83 l 1.881 0.684 l 2.563 -1.195 l 1.363 -3.74 l 2.82 -1.027 l -0.363 -1 c 1.363 -0.814 4.01 -2.585 4.684 -4.439 c 1.419 -3.892 -0.59 -8.197 -4.482 -9.613 c -1.771 -0.645 -3.653 -0.583 -5.301 0.039 l -0.693 -1.902 z" transform="matrix(0.26520215,0.09652569,-0.09652569,0.26520215,2.6287723,-1.8030622)" style="opacity:1;fill-opacity:1;stroke:none;fill-rule:nonzero"/>
   </g>
  </g>
  <g transform="translate(6.0587827e-8,-0.27981778)">
   <g transform="matrix(0.93969262,-0.34202014,0.34202014,0.93969262,-2.1357765,2.5910129)">
    <rect width="4.516" height="5.08" x="4.233" y="4.516" style="fill:#f9f9f9;opacity:1;fill-opacity:1;stroke:none;fill-rule:nonzero"/>
    <rect width="3.387" height="0.282" x="4.798" y="5.08" style="fill:#b3b3b3;opacity:1;fill-opacity:1;stroke:none;fill-rule:nonzero"/>
    <rect y="5.927" x="4.798" height="0.282" width="1.693" style="fill:#b3b3b3;opacity:1;fill-opacity:1;stroke:none;fill-rule:nonzero"/>
    <rect y="6.773" x="4.798" height="0.282" width="2.822" style="fill:#b3b3b3;opacity:1;fill-opacity:1;stroke:none;fill-rule:nonzero"/>
    <rect width="2.258" height="0.282" x="4.798" y="7.62" style="fill:#b3b3b3;opacity:1;fill-opacity:1;stroke:none;fill-rule:nonzero"/>
    <rect width="1.411" height="0.282" x="4.798" y="8.467" style="fill:#b3b3b3;opacity:1;fill-opacity:1;stroke:none;fill-rule:nonzero"/>
   </g>
   <g transform="matrix(0.93969262,0.34202014,-0.34202014,0.93969262,-5.8670107,-1.7611599)">
    <path d="m 15.522 5.08 0 1.129 0.564 0.564 0.564 0 0.564 -0.564 0 -1.129 z" style="fill:#808080;stroke:none;fill-rule:evenodd"/>
    <path d="m 58 2 c -4.142 0 -7.64 3.36 -7.5 7.5 0.091 2.691 3.5 6.5 3.5 6.5 l 1 2 6 0 1 -2 c 0 0 3.498 -3.813 3.5 -6.5 c 0.002 -4.142 -3.358 -7.5 -7.5 -7.5" transform="scale(0.28222222,0.28222222)" style="fill:#ffe680;opacity:1;fill-opacity:1;stroke:none;fill-rule:nonzero"/>
   </g>
  </g>
 </g>
</svg>
